X:1
T:Title
%%score ( 1 2 ) ( 3 4 )
L:1/8
M:9/8
K:D
V:1 treble nm="Grand Piano"
V:2 treble 
V:3 bass nm="Grand Piano"
V:4 bass 
V:1
 z3 z3 z D[A,E] | [DF]3 [DF]3 FG[D^G] | [DA]3 [DA]3 AB[DF] | [CA]3- [CA]2 [EG] [EG][DF][CE] | %4
w: * Er|bar men~ nimm~ * mich~|Ar men,~ nimm~ * mich~|Je * su,~ wie~ * ich~|
[M:3/4] [DF]6 |[M:3/8] z D[A,E] |[M:9/8] [DF]3 [DF]3 FG[D^G] | [DA]3 [DA]3 AB[DF] | %8
w: bin.~|* Er|bar men~ Heil' * mich~|Rei men,~ nimm~ * mich~|
 [CA]3- [CA]2 [EG] [EG][DF][CE] | [A,D]6 [DF][EG][FA] | [DB]3 [DB]3 dc[DB] | %11
w: Je * su,~ wie~ * fort|* Herr,~ * ich~|su che,~ Herr~ * ich~|
 [DB]3 [DA]3 [FA][EG][DF] | [CE]3- [CE]2 [DF] [EG][FA][GB] | [FA]3 [DF]3 FG[DA] | %14
w: fin de~ mei * ne~|Ru * he~ nur~ * in~|Dir,~ * gib~ * den~|
 [DB]3 [DB]3 dc[DB] | [DB]3 [DA]3 [DA][CG][DF] | [CE]3- [CE]2 [EG] [EG][DF][CE] | [A,D]6 z3 |] %18
w: Se gen~ dei * nem~|Kin de~ und~ * be|wah * re~ du~ * Ihn~|mir!~|
V:2
 z3 z3 .A,3 | z3 z3 .D3 | z3 z3 .D3 | x9 |[M:3/4] x6 |[M:3/8] A,2 z |[M:9/8] z3 z3 .D3 | %7
 z3 z3 .D3 | x9 | x9 | z3 z3 .D3 | x9 | x9 | z3 z3 .D3 | z3 z3 .D3 | x9 | x9 | x9 |] %18
V:3
 z3 z3 [D,F,]2 [D,G,] | [D,A,]3 [D,A,]3 z E,[D,=F,] | [D,F,]3 [D,F,]3 F,G,[D,A,] | %3
 [A,,E,]3- [A,,E,]2 [A,,A,] [A,,A,]2 [A,,A,] |[M:3/4] [D,A,]6 |[M:3/8] [D,F,]2 [D,G,] | %6
[M:9/8] [D,A,]3 [D,A,]3 z E,[D,=F,] | [D,F,]3 [D,F,]3 F,G,[D,A,] | %8
 [A,,E,]3- [A,,E,]2 [A,,A,] [A,,A,]2 [A,,A,] | [D,F,]6 D,2 D, | z3 z3 .G,3 | %11
 [D,G,]3 [D,F,]3 [D,A,]2 [D,A,] | [A,,A,]3- [A,,A,]2 [A,,A,] [A,,A,]2 [A,,A,] | z3 z3 .A,3 | %14
 z3 z3 .B,3 | z3 z3 .A,3 | [A,,A,]3- [A,,A,]2 [A,,A,] [A,,A,]2 [A,,G,] | [D,F,]6 z3 |] %18
V:4
 x9 | z3 z3 .D,3 | z3 z3 .D,3 | x9 |[M:3/4] x6 |[M:3/8] x3 |[M:9/8] z3 z3 .D,3 | z3 z3 .D,3 | x9 | %9
 x9 | [G,,G,]3 [G,,G,]3 B,A,G, | x9 | x9 | [D,A,]6 D,E,[F,A,] | G,3 [G,,G,]3 G,-[G,A,]G, | %15
 [D,G,]3 [D,F,]3 F,E,[D,A,] | x9 | x9 |] %18

